logos/dynatrace-icon.svg

<?xml version="1.0" encoding="UTF-8"?>
<svg width="256px" height="260px" viewBox="0 0 256 260" version="1.1" xmlns="http://www.w3.org/2000/svg" xmlns:xlink="http://www.w3.org/1999/xlink" preserveAspectRatio="xMidYMid">
    <g>
        <path d="M86.3857687,21.6895737 C83.0567503,39.2593929 78.9879501,65.3367034 76.7686045,91.7839049 C72.8847498,138.390162 75.2890408,169.645946 75.2890408,169.645946 L9.63340081,231.972567 C9.63340081,231.972567 4.63987326,197.017874 2.05063675,157.62449 C0.571073033,133.211689 0.0162366389,111.758015 0.0162366389,98.8118326 C0.0162366389,98.0720507 0.386127568,97.3322688 0.386127568,96.592487 C0.386127568,95.6677597 1.49580036,86.9753228 10.0032917,78.8377224 C19.250565,69.9603401 87.4954415,16.5111007 86.3857687,21.6895737 Z" fill="#1496FF"></path>
        <path d="M86.3857687,21.6895737 C83.0567503,39.2593929 78.9879501,65.3367034 76.7686045,91.7839049 C76.7686045,91.7839049 4.08503686,83.0914681 0.0162366389,100.661287 C0.0162366389,99.7365599 1.31085489,89.0097229 9.81834627,80.8721225 C19.0656195,71.9947402 87.4954415,16.5111007 86.3857687,21.6895737 L86.3857687,21.6895737 Z" fill="#1284EA"></path>
        <path d="M0.0162366389,96.4075415 L0.0162366389,100.476342 C0.756018498,97.3322688 2.05063675,95.1129233 4.63987326,91.5989594 C10.0032917,84.7559772 18.6957286,82.9065226 22.2096924,82.5366317 C39.964457,80.1323406 66.226713,77.3581587 92.6739145,76.6183768 C139.465117,75.1388131 170.35101,79.0226678 170.35101,79.0226678 L236.00665,16.6960462 C236.00665,16.6960462 201.606793,10.2229549 162.398355,5.59931831 C136.690935,2.45524541 114.127588,0.790736222 101.366351,0.0509543628 C100.441624,0.0509543628 91.3792963,-1.05871843 82.8718049,7.07888203 C73.6245316,15.9562643 26.6483836,60.5281214 7.78394616,78.4678314 C-0.72354522,86.6054319 0.0162366389,95.6677597 0.0162366389,96.4075415 Z" fill="#B4DC00"></path>
        <path d="M233.602359,176.119037 C215.847594,178.523328 189.585338,181.482455 163.138137,182.407183 C116.346934,183.886746 85.2760959,180.002892 85.2760959,180.002892 L19.6204559,242.514459 C19.6204559,242.514459 54.3902033,249.357441 93.5986418,253.796132 C117.641552,256.570314 138.910281,258.049878 151.856463,258.78966 C152.781191,258.78966 154.260754,258.049878 155.185482,258.049878 C156.110209,258.049878 165.172537,256.385369 173.680028,248.247768 C182.927301,239.370386 238.780832,175.5642 233.602359,176.119037 L233.602359,176.119037 Z" fill="#6F2DA8"></path>
        <path d="M233.602359,176.119037 C215.847594,178.523328 189.585338,181.482455 163.138137,182.407183 C163.138137,182.407183 168.131664,255.460641 150.561845,258.604714 C151.486572,258.604714 163.508028,258.049878 172.015519,249.912277 C181.262792,241.034895 238.780832,175.5642 233.602359,176.119037 L233.602359,176.119037 Z" fill="#591F91"></path>
        <path d="M154.4457,258.974605 C153.151081,258.974605 151.856463,258.78966 150.3769,258.78966 C153.705918,258.234823 155.925263,257.12515 159.439227,254.535914 C166.467155,249.542386 168.686501,240.84995 169.426282,237.335986 C172.570355,219.766167 176.824101,193.688856 178.858501,167.241655 C182.55741,120.635397 180.338065,89.5645593 180.338065,89.5645593 L245.993705,27.0529922 C245.993705,27.0529922 250.802287,61.8227396 253.576469,101.216124 C255.240978,126.923543 255.795814,149.671835 255.98076,162.248127 C255.98076,163.172854 256.720542,172.235182 248.21305,180.372783 C238.965777,189.250165 191.989629,234.006967 173.310137,251.946677 C164.432755,260.084278 155.370427,258.974605 154.4457,258.974605 L154.4457,258.974605 Z" fill="#73BE28"></path>
    </g>
</svg>

<svg width="256" height="260" xmlns="http://www.w3.org/2000/svg" preserveAspectRatio="xMidYMid">
	<path d="M86.386 21.69c-3.33 17.57-7.398 43.647-9.617 70.094-3.884 46.606-1.48 77.862-1.48 77.862L9.633 231.973s-4.993-34.955-7.582-74.349C.57 133.212.016 111.758.016 98.812c0-.74.37-1.48.37-2.22 0-.924 1.11-9.617 9.617-17.754C19.251 69.96 87.495 16.51 86.386 21.69Z" fill="#1496FF"/>
	<path d="M86.386 21.69c-3.33 17.57-7.398 43.647-9.617 70.094 0 0-72.684-8.693-76.753 8.877 0-.924 1.295-11.651 9.802-19.789 9.248-8.877 77.677-64.36 76.568-59.182Z" fill="#1284EA"/>
	<path d="M.016 96.408v4.068c.74-3.144 2.035-5.363 4.624-8.877 5.363-6.843 14.056-8.692 17.57-9.062 17.754-2.405 44.017-5.179 70.464-5.919 46.791-1.48 77.677 2.405 77.677 2.405l65.656-62.327s-34.4-6.473-73.609-11.097C136.691 2.455 114.128.791 101.366.051c-.924 0-9.987-1.11-18.494 7.028-9.247 8.877-56.224 53.45-75.088 71.389-8.508 8.137-7.768 17.2-7.768 17.94Z" fill="#B4DC00"/>
	<path d="M233.602 176.119c-17.754 2.404-44.017 5.363-70.464 6.288-46.791 1.48-77.862-2.404-77.862-2.404L19.62 242.514s34.77 6.843 73.979 11.282c24.043 2.774 45.311 4.254 58.257 4.994.925 0 2.405-.74 3.33-.74.924 0 9.987-1.665 18.494-9.802 9.247-8.878 65.1-72.684 59.922-72.129Z" fill="#6F2DA8"/>
	<path d="M233.602 176.119c-17.754 2.404-44.017 5.363-70.464 6.288 0 0 4.994 73.054-12.576 76.198.925 0 12.946-.555 21.454-8.693 9.247-8.877 66.765-74.348 61.586-73.793Z" fill="#591F91"/>
	<path d="M154.446 258.975c-1.295 0-2.59-.185-4.07-.185 3.33-.555 5.55-1.665 9.063-4.254 7.028-4.994 9.248-13.686 9.987-17.2 3.144-17.57 7.398-43.647 9.433-70.094 3.698-46.607 1.48-77.677 1.48-77.677l65.655-62.512s4.808 34.77 7.582 74.163c1.665 25.708 2.22 48.456 2.405 61.032 0 .925.74 9.987-7.768 18.125-9.247 8.877-56.223 53.634-74.903 71.574-8.877 8.137-17.94 7.028-18.864 7.028Z" fill="#73BE28"/>
</svg>
